resources/svg/home-heart-fill.svg

<svg fill="currentColor" viewBox="0 0 24 24" xmlns="http://www.w3.org/2000/svg"><path d="M20 20.0001C20 20.5524 19.5523 21.0001 19 21.0001H5C4.44772 21.0001 4 20.5524 4 20.0001V11.0001H1L11.3273 1.61162C11.7087 1.26488 12.2913 1.26488 12.6727 1.61162L23 11.0001H20V20.0001ZM12 17.0001L15.3588 13.6413C16.2374 12.7627 16.2374 11.338 15.3588 10.4594C14.4801 9.58068 13.0555 9.58068 12.1768 10.4594L12 10.6361L11.8232 10.4594C10.9445 9.58068 9.51992 9.58068 8.64124 10.4594C7.76256 11.338 7.76256 12.7627 8.64124 13.6413L12 17.0001Z"/></svg>

<svg xmlns="http://www.w3.org/2000/svg" viewBox="0 0 24 24" fill="currentColor">
    <g>
        <path fill="none" d="M0 0h24v24H0z"/>
        <path d="M20 20a1 1 0 0 1-1 1H5a1 1 0 0 1-1-1v-9H1l10.327-9.388a1 1 0 0 1 1.346 0L23 11h-3v9zm-8-3l3.359-3.359a2.25 2.25 0 1 0-3.182-3.182l-.177.177-.177-.177a2.25 2.25 0 1 0-3.182 3.182L12 17z"/>
    </g>
</svg>
